X:258
T: Song lang dang hongjun
N: C0404
O: China, Jiangxi, Suqu
S: IV, 220]
N: Jiang vermutet, die Melodie kommt aus Fujian, da die Suedost -
N: Region relativ nahe ist.
N: Pinyin-Text der ersten Strophe vorhanden!
R: Xiaodiao. Geming lishi minge]
M: 2/4
L: 1/8
K: Bb
cc2d | cdgb | c3d
ff2g | b2cd | b2z2
bcd2 | c4 | bcbg | f2z2
gg2b | gfd2 | f2z2
gcbg | f2gd | f4

